X:813
T:Reel 813
M:4/4
K:Gmaj
L:1/8
 (3def |gdBd G2BG|AGeg f2Ad||B>G (3GGG dGBG| (3Bcd AF G2 (3def |gdBG GBdg|e>A (3AAA e>A (3AGA |gdBG AcBA|BdAF G2|Bc|dgbg egdg|egfa gfef|dgeg d2eg| (3abc' bg afg2|dgbg ageg|dgfg ageg| (3dc'b  (3c'ba bgaf|ecdB GcBc|
